X:16022
T:Prince of Cabourg's Hornpipe
T:Prince of Coburg's Hornpipe
R:Hornpipe
C:Trad. J Gibbons 1823
O:England; Lincolnshire
Z:Paul Hardy's Session Tunebook 2022 (see www.paulhardy.net). Creative Commons cc by-nc-sa licenced.
M:4/4
L:1/8
Q:1/4=140
K:G
D2"G"|G2GG GBdg|"C"e2c2 "Am"c2ee|"G"edBd "D"dcAc|"G"cBGB "D"AFDE|
"G"G2GG GBdg|"C"e2c2 "Am"c2ee|"G"edBd "D7"dcAF|"G"G2G2 G2:|
Bd|"D"cAFA DFAc|"G"B2G2G2 Bd|"D"cAFA DFAc|"G"B2G2G2 gg|
"D"gfff "C"feee|"G"eddd "C"dccc|"G"cBed cBAG|"D"FDAD BDAD||
"G"G2GG GBdg|"C"e2c2 "Am"c2ee|"G"edBd "D"dcAc|"G"cBGB "D"AFDE|
"G"G2GG GBdg|"C"e2c2 "Am"c2ee|"G"edBd "D7"dcAF|"G"G2G2 G2|]

